assets/icons/error.svg

<svg class="ucla-icon error" width="24" height="24" viewBox="0 0 24 24" aria-labelledby="icon-error" role="img"><title id="icon-error">Icon Error</title><defs><path d="M12 2C6.48 2 2 6.48 2 12s4.48 10 10 10 10-4.48 10-10S17.52 2 12 2zm1 15h-2v-2h2v2zm0-4h-2V7h2v6z" id="path-1"/></defs><g id="Icon Error" fill="none" fill-rule="evenodd"><mask id="mask-2" fill="#fff"><use xlink:href="#path-1"/></mask><use id="Shape" fill="#000" xlink:href="#path-1"/></g></svg>

<?xml version="1.0" encoding="UTF-8"?>
<svg width="24px" height="24px" viewBox="0 0 24 24" version="1.1" xmlns="http://www.w3.org/2000/svg" xmlns:xlink="http://www.w3.org/1999/xlink">
    <!-- Generator: Sketch 54.1 (76490) - https://sketchapp.com -->
    <title>Icon/Error</title>
    <desc>Created with Sketch.</desc>
    <defs>
        <path d="M12,2 C6.48,2 2,6.48 2,12 C2,17.52 6.48,22 12,22 C17.52,22 22,17.52 22,12 C22,6.48 17.52,2 12,2 Z M13,17 L11,17 L11,15 L13,15 L13,17 Z M13,13 L11,13 L11,7 L13,7 L13,13 Z" id="path-1"></path>
    </defs>
    <g id="Icon/Error" stroke="none" stroke-width="1" fill="none" fill-rule="evenodd">
        <mask id="mask-2" fill="white">
            <use xlink:href="#path-1"></use>
        </mask>
        <use id="Shape" fill="#000000" xlink:href="#path-1"></use>
    </g>
</svg>
